; generated by PrusaSlicer 2.4.2+x64 on 2022-06-25 at 10:23:51 UTC

; 

; external perimeters extrusion width = 0.45mm
; perimeters extrusion width = 0.45mm
; infill extrusion width = 0.45mm
; solid infill extrusion width = 0.45mm
; top infill extrusion width = 0.40mm
; first layer extrusion width = 0.42mm

M107
;TYPE:Custom
G90 ; use absolute coordinates
M83 ; extruder relative mode
M140 S60 ; set final bed temp
M104 S150 ; set temporary nozzle temp to prevent oozing during homing and auto bed leveling
G4 S10 ; allow partial nozzle warmup
G28 ; home all axis
G29 ; auto bed levelling
G1 Z50 F240
G1 X2 Y10 F3000
M104 S210 ; set final nozzle temp
M190 S60 ; wait for bed temp to stabilize
M109 S210 ; wait for nozzle temp to stabilize
G1 Z0.28 F240
G92 E0
G1 Y140 E10 F1500 ; prime the nozzle
G1 X2.3 F5000
G92 E0
G1 Y10 E10 F1200 ; prime the nozzle
G92 E0
G21 ; set units to millimeters
G90 ; use absolute coordinates
M83 ; use relative distances for extrusion
; Filament gcode
M107
;LAYER_CHANGE
;Z:0.2
;HEIGHT:0.2
;BEFORE_LAYER_CHANGE
G92 E0
;0.2


G1 E-5 F3600
G1 Z.2 F9000
;AFTER_LAYER_CHANGE
;0.2
G1 X81.743 Y69.793
G1 E5 F2400
M204 S500
;TYPE:Skirt/Brim
;WIDTH:0.42
G1 F1200
G1 X82.761 Y68.848 E.04356
G1 X83.418 Y68.388 E.02514
G1 X83.928 Y68.094 E.01846
G1 X85.208 Y67.553 E.04356
G1 X86.562 Y67.244 E.04356
G1 X87.361 Y67.174 E.02514
G1 X143.639 Y67.174 E1.76458
G1 X145.018 Y67.346 E.04356
G1 X146.345 Y67.755 E.04356
G1 X147.072 Y68.094 E.02514
G1 X148.239 Y68.848 E.04356
G1 X149.257 Y69.793 E.04356
G1 X149.635 Y70.244 E.01846
G1 X150.389 Y71.411 E.04356
G1 X150.93 Y72.691 E.04356
G1 X151.192 Y73.706 E.0329
G1 X158.24 Y110.775 E1.18306
G1 X158.313 Y112.25 E.04632
G1 X158.19 Y113.608 E.04275
G1 X151.192 Y150.294 E1.17099
G1 X150.728 Y151.863 E.0513
G1 X150.095 Y153.099 E.04356
G1 X149.257 Y154.207 E.04356
G1 X148.239 Y155.152 E.04356
G1 X147.072 Y155.906 E.04356
G1 X145.792 Y156.447 E.04356
G1 X118.26 Y163.447 E.89072
G1 X117.22 Y163.683 E.03343
G1 X115.75 Y163.83 E.04632
G1 X114.275 Y163.757 E.04632
G1 X112.74 Y163.447 E.04909
G1 X86.025 Y156.665 E.86419
G1 X84.655 Y156.245 E.04495
G1 X83.418 Y155.612 E.04356
G1 X82.31 Y154.774 E.04356
G1 X81.743 Y154.207 E.02514
G1 X80.905 Y153.099 E.04356
G1 X80.272 Y151.863 E.04356
G1 X79.863 Y150.535 E.04356
G1 X72.81 Y113.608 E1.17874
G1 X72.687 Y112.25 E.04275
G1 X72.81 Y110.392 E.05839
G1 X79.808 Y73.706 E1.17099
G1 X80.272 Y72.137 E.0513
G1 X80.905 Y70.901 E.04356
G1 X81.707 Y69.841 E.04168
G1 E-3.5 F3600
;WIPE_START
G1 F7200
G1 X82.761 Y68.848 E-.68795
G1 X83.418 Y68.388 E-.38087
G1 X83.928 Y68.094 E-.27963
G1 X84.076 Y68.031 E-.07655
;WIPE_END
G1 E-.075 F3600
G1 X149.984 Y110.662 F9000
G1 E5 F2400
;TYPE:Perimeter
G1 F1200
G1 X150.321 Y110.283 E.01591
G1 X150.781 Y109.966 E.01751
G1 X151.33 Y109.769 E.01831
G1 X151.842 Y109.708 E.01616
G1 X152.39 Y109.774 E.0173
G1 X152.908 Y109.969 E.01735
G1 X153.363 Y110.283 E.01735
G1 X153.73 Y110.697 E.01735
G1 X153.988 Y111.186 E.01735
G1 X154.12 Y111.723 E.01735
G1 X154.12 Y112.277 E.01735
G1 X153.988 Y112.814 E.01735
G1 X153.73 Y113.303 E.01735
G1 X153.363 Y113.717 E.01735
G1 X152.908 Y114.031 E.01735
G1 X152.39 Y114.226 E.01735
G1 X151.842 Y114.292 E.01731
G1 X151.294 Y114.226 E.0173
G1 X150.776 Y114.031 E.01735
G1 X150.321 Y113.717 E.01735
G1 X149.954 Y113.303 E.01735
G1 X149.696 Y112.814 E.01735
G1 X149.564 Y112.277 E.01735
G1 X149.564 Y111.723 E.01735
G1 X149.696 Y111.186 E.01735
G1 X149.947 Y110.709 E.0169
G1 X150.266 Y110.913 F9000
;TYPE:External perimeter
G1 F1200
G1 X150.572 Y110.567 E.01447
G1 X150.954 Y110.305 E.01453
G1 X151.417 Y110.139 E.01543
G1 X151.842 Y110.088 E.01341
G1 X152.3 Y110.143 E.01445
G1 X152.731 Y110.306 E.01447
G1 X153.112 Y110.567 E.01447
G1 X153.418 Y110.913 E.01447
G1 X153.633 Y111.321 E.01447
G1 X153.743 Y111.769 E.01447
G1 X153.743 Y112.231 E.01447
G1 X153.633 Y112.679 E.01447
G1 X153.418 Y113.087 E.01447
G1 X153.112 Y113.433 E.01447
G1 X152.731 Y113.694 E.01447
G1 X152.3 Y113.857 E.01447
G1 X151.842 Y113.912 E.01445
G1 X151.384 Y113.857 E.01445
G1 X150.952 Y113.694 E.01447
G1 X150.572 Y113.433 E.01447
G1 X150.266 Y113.087 E.01447
G1 X150.051 Y112.679 E.01447
G1 X149.941 Y112.231 E.01447
G1 X149.941 Y111.769 E.01447
G1 X150.051 Y111.321 E.01447
G1 X150.238 Y110.966 E.01259
G1 X150.095 Y110.551 F9000
G1 E-3.5 F3600
;WIPE_START
G1 F7200
G1 X150.572 Y110.567 E-.247
G1 X150.954 Y110.305 E-.2201
G1 X151.417 Y110.139 E-.23378
G1 X151.842 Y110.088 E-.20314
G1 X152.3 Y110.143 E-.21895
G1 X152.731 Y110.306 E-.21924
G1 X152.875 Y110.404 E-.08278
;WIPE_END
G1 E-.075 F3600
G1 X116.647 Y155.376 F9000
G1 E5 F2400
;TYPE:Perimeter
G1 F1200
G1 X117.121 Y155.741 E.01877
G1 X117.486 Y156.215 E.01877
G1 X117.715 Y156.769 E.01877
G1 X117.793 Y157.362 E.01877
G1 X117.715 Y157.955 E.01877
G1 X117.486 Y158.509 E.01877
G1 X117.121 Y158.983 E.01877
G1 X116.647 Y159.348 E.01877
G1 X116.093 Y159.577 E.01877
G1 X115.5 Y159.655 E.01877
G1 X114.907 Y159.577 E.01877
G1 X114.353 Y159.348 E.01877
G1 X113.879 Y158.983 E.01877
G1 X113.514 Y158.509 E.01877
G1 X113.285 Y157.955 E.01877
G1 X113.207 Y157.362 E.01877
G1 X113.285 Y156.769 E.01877
G1 X113.514 Y156.215 E.01877
G1 X113.879 Y155.741 E.01877
G1 X114.358 Y155.373 E.01894
G1 X114.946 Y155.142 E.0198
G1 X115.5 Y155.069 E.01753
G1 X116.093 Y155.147 E.01877
G1 X116.591 Y155.353 E.01689
G1 X116.456 Y155.706 F9000
;TYPE:External perimeter
G1 F1200
G1 X116.852 Y156.01 E.01566
G1 X117.156 Y156.406 E.01566
G1 X117.348 Y156.867 E.01566
G1 X117.413 Y157.362 E.01566
G1 X117.348 Y157.857 E.01566
G1 X117.156 Y158.318 E.01566
G1 X116.852 Y158.714 E.01566
G1 X116.456 Y159.018 E.01566
G1 X115.995 Y159.21 E.01566
G1 X115.5 Y159.275 E.01566
G1 X115.005 Y159.21 E.01566
G1 X114.544 Y159.018 E.01566
G1 X114.148 Y158.714 E.01566
G1 X113.844 Y158.318 E.01566
G1 X113.652 Y157.857 E.01566
G1 X113.587 Y157.362 E.01566
G1 X113.652 Y156.867 E.01566
G1 X113.844 Y156.406 E.01566
G1 X114.148 Y156.01 E.01566
G1 X114.545 Y155.704 E.01572
G1 X115.041 Y155.51 E.01669
G1 X115.5 Y155.449 E.01453
G1 X115.995 Y155.515 E.01566
G1 X116.401 Y155.683 E.01377
G1 X116.803 Y155.506 F9000
G1 E-3.5 F3600
;WIPE_START
G1 F7200
G1 X116.852 Y156.01 E-.2648
G1 X117.156 Y156.406 E-.23717
G1 X117.348 Y156.867 E-.23717
G1 X117.413 Y157.362 E-.23717
G1 X117.348 Y157.857 E-.23717
G1 X117.177 Y158.268 E-.21151
;WIPE_END
G1 E-.075 F3600
G1 X80.782 Y113.621 F9000
G1 E5 F2400
;TYPE:Perimeter
G1 F1200
G1 X80.308 Y113.986 E.01877
G1 X79.755 Y114.215 E.01877
G1 X79.161 Y114.293 E.01877
G1 X78.568 Y114.215 E.01877
G1 X78.015 Y113.986 E.01877
G1 X77.54 Y113.621 E.01877
G1 X77.175 Y113.147 E.01877
G1 X76.946 Y112.593 E.01877
G1 X76.868 Y112 E.01877
G1 X76.946 Y111.407 E.01877
G1 X77.175 Y110.853 E.01877
G1 X77.54 Y110.379 E.01877
G1 X78.019 Y110.011 E.01894
G1 X78.607 Y109.78 E.0198
G1 X79.161 Y109.707 E.01753
G1 X79.755 Y109.785 E.01877
G1 X80.313 Y110.016 E.01894
G1 X80.807 Y110.41 E.0198
G1 X81.147 Y110.853 E.01753
G1 X81.376 Y111.407 E.01877
G1 X81.454 Y112 E.01877
G1 X81.376 Y112.593 E.01877
G1 X81.147 Y113.147 E.01877
G1 X80.819 Y113.574 E.01689
G1 X80.514 Y113.352 F9000
;TYPE:External perimeter
G1 F1200
G1 X80.117 Y113.656 E.01566
G1 X79.656 Y113.848 E.01566
G1 X79.161 Y113.913 E.01566
G1 X78.666 Y113.848 E.01566
G1 X78.205 Y113.656 E.01566
G1 X77.809 Y113.352 E.01566
G1 X77.505 Y112.956 E.01566
G1 X77.314 Y112.495 E.01566
G1 X77.248 Y112 E.01566
G1 X77.314 Y111.505 E.01566
G1 X77.505 Y111.044 E.01566
G1 X77.809 Y110.648 E.01566
G1 X78.206 Y110.342 E.01572
G1 X78.702 Y110.148 E.01669
G1 X79.161 Y110.087 E.01453
G1 X79.656 Y110.152 E.01566
G1 X80.119 Y110.344 E.01572
G1 X80.535 Y110.676 E.01669
G1 X80.817 Y111.044 E.01453
G1 X81.009 Y111.505 E.01566
G1 X81.074 Y112 E.01566
G1 X81.009 Y112.495 E.01566
G1 X80.817 Y112.956 E.01566
G1 X80.55 Y113.305 E.01377
G1 X80.617 Y113.739 F9000
G1 E-3.5 F3600
;WIPE_START
G1 F7200
G1 X80.117 Y113.656 E-.2648
G1 X79.656 Y113.848 E-.23717
G1 X79.161 Y113.913 E-.23717
G1 X78.666 Y113.848 E-.23717
G1 X78.205 Y113.656 E-.23717
G1 X77.851 Y113.385 E-.21151
;WIPE_END
G1 E-.075 F3600
G1 X147.258 Y106.09 F9000
G1 E5 F2400
;TYPE:Perimeter
G1 F1200
G1 X148.863 Y106.112 E.05032
G1 X149.727 Y106.253 E.02746
G1 X150.561 Y106.52 E.02746
G1 X151.347 Y106.908 E.02746
G1 X152.066 Y107.407 E.02746
G1 X152.704 Y108.007 E.02746
G1 X153.246 Y108.695 E.02746
G1 X153.681 Y109.456 E.02746
G1 X153.998 Y110.272 E.02746
G1 X154.191 Y111.127 E.02746
G1 X154.256 Y112 E.02746
G1 X154.191 Y112.873 E.02746
G1 X153.998 Y113.728 E.02746
G1 X153.681 Y114.544 E.02746
G1 X153.246 Y115.305 E.02746
G1 X152.704 Y115.993 E.02746
G1 X152.066 Y116.593 E.02746
G1 X151.347 Y117.092 E.02746
G1 X150.561 Y117.48 E.02746
G1 X149.727 Y117.747 E.02746
G1 X148.863 Y117.888 E.02746
G1 X147.258 Y117.91 E.05032
G1 X147.258 Y148.832 E.96954
G1 X147.196 Y149.541 E.02232
G1 X147.019 Y150.199 E.02137
G1 X146.731 Y150.817 E.02137
G1 X146.34 Y151.375 E.02137
G1 X145.858 Y151.857 E.02137
G1 X145.3 Y152.248 E.02137
G1 X144.682 Y152.536 E.02137
G1 X144.024 Y152.713 E.02137
G1 X143.315 Y152.775 E.02232
G1 X121.41 Y152.775 E.68682
G1 X121.388 Y154.38 E.05032
G1 X121.247 Y155.244 E.02746
G1 X120.98 Y156.078 E.02746
G1 X120.592 Y156.864 E.02746
G1 X120.093 Y157.583 E.02746
G1 X119.493 Y158.221 E.02746
G1 X118.805 Y158.763 E.02746
G1 X118.044 Y159.198 E.02746
G1 X117.228 Y159.515 E.02746
G1 X116.373 Y159.708 E.02746
G1 X115.5 Y159.773 E.02746
G1 X114.627 Y159.708 E.02746
G1 X113.772 Y159.515 E.02746
G1 X112.956 Y159.198 E.02746
G1 X112.195 Y158.763 E.02746
G1 X111.507 Y158.221 E.02746
G1 X110.907 Y157.583 E.02746
G1 X110.408 Y156.864 E.02746
G1 X110.02 Y156.078 E.02746
G1 X109.753 Y155.244 E.02746
G1 X109.612 Y154.38 E.02746
G1 X109.59 Y152.775 E.05032
G1 X87.685 Y152.775 E.68682
G1 X86.976 Y152.713 E.02232
G1 X86.318 Y152.536 E.02137
G1 X85.7 Y152.248 E.02137
G1 X85.142 Y151.857 E.02137
G1 X84.66 Y151.375 E.02137
G1 X84.269 Y150.817 E.02137
G1 X83.981 Y150.199 E.02137
G1 X83.804 Y149.541 E.02137
G1 X83.742 Y148.832 E.02232
G1 X83.742 Y117.91 E.96954
G1 X82.137 Y117.888 E.05032
G1 X81.273 Y117.747 E.02746
G1 X80.439 Y117.48 E.02746
G1 X79.653 Y117.092 E.02746
G1 X78.934 Y116.593 E.02746
G1 X78.296 Y115.993 E.02746
G1 X77.754 Y115.305 E.02746
G1 X77.319 Y114.544 E.02746
G1 X77.002 Y113.728 E.02746
G1 X76.809 Y112.873 E.02746
G1 X76.744 Y112 E.02746
G1 X76.809 Y111.127 E.02746
G1 X77.002 Y110.272 E.02746
G1 X77.319 Y109.456 E.02746
G1 X77.754 Y108.695 E.02746
G1 X78.252 Y108.063 E.02524
G1 X78.937 Y107.405 E.02976
G1 X79.653 Y106.908 E.02736
G1 X80.439 Y106.52 E.02746
G1 X81.273 Y106.253 E.02746
G1 X82.137 Y106.112 E.02746
G1 X83.742 Y106.09 E.05032
G1 X83.742 Y75.168 E.96954
G1 X83.804 Y74.459 E.02232
G1 X83.981 Y73.801 E.02137
G1 X84.269 Y73.183 E.02137
G1 X84.66 Y72.625 E.02137
G1 X85.142 Y72.143 E.02137
G1 X85.7 Y71.752 E.02137
G1 X86.318 Y71.464 E.02137
G1 X86.976 Y71.287 E.02137
G1 X87.685 Y71.225 E.02232
G1 X143.315 Y71.225 E1.74424
G1 X144.024 Y71.287 E.02232
G1 X144.682 Y71.464 E.02137
G1 X145.3 Y71.752 E.02137
G1 X145.858 Y72.143 E.02137
G1 X146.34 Y72.625 E.02137
G1 X146.731 Y73.183 E.02137
G1 X147.019 Y73.801 E.02137
G1 X147.196 Y74.459 E.02137
G1 X147.258 Y75.168 E.02232
G1 X147.258 Y106.03 E.96766
G1 X147.635 Y105.718 F9000
;TYPE:External perimeter
G1 F1200
G1 X148.896 Y105.735 E.03953
G1 X149.815 Y105.885 E.02922
G1 X150.703 Y106.17 E.02922
G1 X151.539 Y106.582 E.02922
G1 X152.304 Y107.113 E.02922
G1 X152.983 Y107.752 E.02922
G1 X153.56 Y108.484 E.02922
G1 X154.022 Y109.293 E.02922
G1 X154.359 Y110.162 E.02922
G1 X154.565 Y111.071 E.02922
G1 X154.634 Y112 E.02922
G1 X154.565 Y112.929 E.02922
G1 X154.359 Y113.838 E.02922
G1 X154.022 Y114.707 E.02922
G1 X153.56 Y115.516 E.02922
G1 X152.983 Y116.248 E.02922
G1 X152.304 Y116.887 E.02922
G1 X151.539 Y117.418 E.02922
G1 X150.703 Y117.83 E.02922
G1 X149.815 Y118.115 E.02922
G1 X148.896 Y118.265 E.02922
G1 X147.635 Y118.282 E.03953
G1 X147.635 Y148.848 E.95839
G1 X147.569 Y149.607 E.02387
G1 X147.375 Y150.329 E.02344
G1 X147.059 Y151.006 E.02344
G1 X146.63 Y151.619 E.02344
G1 X146.102 Y152.147 E.02344
G1 X145.489 Y152.576 E.02344
G1 X144.812 Y152.892 E.02344
G1 X144.09 Y153.086 E.02344
G1 X143.331 Y153.152 E.02387
G1 X121.782 Y153.152 E.67567
G1 X121.765 Y154.413 E.03953
G1 X121.615 Y155.332 E.02922
G1 X121.33 Y156.22 E.02922
G1 X120.918 Y157.056 E.02922
G1 X120.387 Y157.821 E.02922
G1 X119.748 Y158.5 E.02922
G1 X119.016 Y159.077 E.02922
G1 X118.207 Y159.539 E.02922
G1 X117.338 Y159.876 E.02922
G1 X116.429 Y160.082 E.02922
G1 X115.5 Y160.151 E.02922
G1 X114.571 Y160.082 E.02922
G1 X113.662 Y159.876 E.02922
G1 X112.793 Y159.539 E.02922
G1 X111.984 Y159.077 E.02922
G1 X111.252 Y158.5 E.02922
G1 X110.613 Y157.821 E.02922
G1 X110.082 Y157.056 E.02922
G1 X109.67 Y156.22 E.02922
G1 X109.385 Y155.332 E.02922
G1 X109.235 Y154.413 E.02922
G1 X109.218 Y153.152 E.03953
G1 X87.669 Y153.152 E.67567
G1 X86.91 Y153.086 E.02387
G1 X86.188 Y152.892 E.02344
G1 X85.511 Y152.576 E.02344
G1 X84.898 Y152.147 E.02344
G1 X84.37 Y151.619 E.02344
G1 X83.941 Y151.006 E.02344
G1 X83.625 Y150.329 E.02344
G1 X83.431 Y149.607 E.02344
G1 X83.365 Y148.848 E.02387
G1 X83.365 Y118.282 E.95839
G1 X82.104 Y118.265 E.03953
G1 X81.185 Y118.115 E.02922
G1 X80.297 Y117.83 E.02922
G1 X79.461 Y117.418 E.02922
G1 X78.696 Y116.887 E.02922
G1 X78.017 Y116.248 E.02922
G1 X77.441 Y115.516 E.02922
G1 X76.978 Y114.707 E.02922
G1 X76.641 Y113.838 E.02922
G1 X76.435 Y112.929 E.02922
G1 X76.366 Y112 E.02922
G1 X76.435 Y111.071 E.02922
G1 X76.641 Y110.162 E.02922
G1 X76.978 Y109.293 E.02922
G1 X77.44 Y108.484 E.02922
G1 X77.972 Y107.809 E.02693
G1 X78.697 Y107.113 E.03152
G1 X79.461 Y106.582 E.02918
G1 X80.297 Y106.17 E.02922
G1 X81.185 Y105.885 E.02922
G1 X82.104 Y105.735 E.02922
G1 X83.365 Y105.718 E.03953
G1 X83.365 Y75.152 E.95839
G1 X83.431 Y74.393 E.02387
G1 X83.625 Y73.671 E.02344
G1 X83.941 Y72.994 E.02344
G1 X84.37 Y72.381 E.02344
G1 X84.898 Y71.853 E.02344
G1 X85.511 Y71.424 E.02344
G1 X86.188 Y71.108 E.02344
G1 X86.91 Y70.914 E.02344
G1 X87.669 Y70.848 E.02387
G1 X143.331 Y70.848 E1.74527
G1 X144.09 Y70.914 E.02387
G1 X144.812 Y71.108 E.02344
G1 X145.489 Y71.424 E.02344
G1 X146.102 Y71.853 E.02344
G1 X146.63 Y72.381 E.02344
G1 X147.059 Y72.994 E.02344
G1 X147.375 Y73.671 E.02344
G1 X147.569 Y74.393 E.02344
G1 X147.635 Y75.152 E.02387
G1 X147.635 Y105.658 E.95651
G1 X147.632 Y106.118 F9000
G1 E-3.5 F3600
;WIPE_START
G1 F7200
G1 X148.896 Y105.735 E-.59993
G1 X149.815 Y105.885 E-.44266
G1 X150.582 Y106.131 E-.38241
;WIPE_END
G1 E-.075 F3600
G1 X153.559 Y110.024 F9000
G1 E5 F2400
;TYPE:Gap fill
;WIDTH:0.263852
G1 F1200
G1 X153.705 Y110.261 E.00511
;WIDTH:0.216797
G1 X153.85 Y110.499 E.00403
G1 E-3.5 F3600
;WIPE_START
G1 F7200
G1 X153.705 Y110.261 E-.13225
;WIPE_END
G1 E-1.36775 F3600
G1 X153.85 Y113.501 F9000
G1 E5 F2400
;WIDTH:0.216797
G1 F1200
G1 X153.705 Y113.739 E.00403
;WIDTH:0.263853
G1 X153.559 Y113.976 E.00511
G1 X153.576 Y114.499 F9000
;TYPE:Solid infill
;WIDTH:0.421209
G1 F1200
G1 X153.229 Y114.153 E.01542
G1 X153.04 Y114.283 E.00724
G1 X152.884 Y114.342 E.00525
G1 X153.257 Y114.716 E.0166
G1 X153.062 Y115.056 E.01233
G1 X152.495 Y114.489 E.02523
G1 X152.026 Y114.555 E.0149
G1 X152.837 Y115.366 E.03609
G1 X152.602 Y115.665 E.01198
G1 X151.274 Y114.338 E.05905
G1 E-3.5 F3600
;WIPE_START
G1 F7200
G1 X152.602 Y115.665 E-.89165
G1 X152.837 Y115.366 E-.18095
G1 X152.313 Y114.842 E-.3524
;WIPE_END
G1 E-.075 F3600
G1 X153.694 Y109.803 F9000
G1 E5 F2400
G1 F1200
G1 X150.888 Y106.997 E.12483
G1 X150.455 Y106.783 E.01519
G1 X149.99 Y106.634 E.01534
G1 X153.146 Y109.79 E.14038
G1 X153.04 Y109.717 E.00406
G1 X152.458 Y109.497 E.01956
G1 X152.299 Y109.478 E.00503
G1 X149.289 Y106.468 E.1339
G1 X148.838 Y106.394 E.01438
G1 X148.678 Y106.392 E.00502
G1 X151.724 Y109.437 E.13547
G1 X151.249 Y109.498 E.01504
G1 X148.136 Y106.385 E.13849
G1 X147.594 Y106.377 E.01706
G1 X150.988 Y109.772 E.151
G1 E-3.5 F3600
;WIPE_START
G1 F7200
G1 X148.867 Y107.65 E-1.425
;WIPE_END
G1 E-.075 F3600
G1 X146.702 Y73.386 F9000
G1 E5 F2400
G1 F1200
G1 X145.673 Y72.358 E.04576
