; generated by PrusaSlicer 2.4.2+x64 on 2022-06-25 at 10:23:13 UTC

; 

; external perimeters extrusion width = 0.45mm
; perimeters extrusion width = 0.45mm
; infill extrusion width = 0.45mm
; solid infill extrusion width = 0.45mm
; top infill extrusion width = 0.40mm
; first layer extrusion width = 0.42mm

M107
;TYPE:Custom
G90 ; use absolute coordinates
M83 ; extruder relative mode
M140 S60 ; set final bed temp
M104 S150 ; set temporary nozzle temp to prevent oozing during homing and auto bed leveling
G4 S10 ; allow partial nozzle warmup
G28 ; home all axis
G29 ; auto bed levelling
G1 Z50 F240
G1 X2 Y10 F3000
M104 S210 ; set final nozzle temp
M190 S60 ; wait for bed temp to stabilize
M109 S210 ; wait for nozzle temp to stabilize
G1 Z0.28 F240
G92 E0
G1 Y140 E10 F1500 ; prime the nozzle
G1 X2.3 F5000
G92 E0
G1 Y10 E10 F1200 ; prime the nozzle
G92 E0
G21 ; set units to millimeters
G90 ; use absolute coordinates
M83 ; use relative distances for extrusion
; Filament gcode
M107
;LAYER_CHANGE
;Z:0.2
;HEIGHT:0.2
;BEFORE_LAYER_CHANGE
G92 E0
;0.2


G1 E-5 F3600
G1 Z.2 F9000
;AFTER_LAYER_CHANGE
;0.2
G1 X42.44 Y65.973
G1 E5 F2400
M204 S500
;TYPE:Skirt/Brim
;WIDTH:0.42
G1 F1200
G1 X43.685 Y65.171 E.04645
G1 X46.216 Y63.839 E.08965
G1 X49.224 Y62.588 E.10215
G1 X51.72 Y61.801 E.08206
G1 X54.56 Y61.159 E.09129
G1 X57.738 Y60.74 E.10052
G1 X60.5 Y60.623 E.08668
G1 X170.647 Y60.626 E3.45359
G1 X173.555 Y60.766 E.09129
G1 X176.44 Y61.159 E.09129
G1 X179.28 Y61.801 E.09129
G1 X182.053 Y62.689 E.09129
G1 X184.471 Y63.691 E.08206
G1 X187.059 Y65.024 E.09129
G1 X189.522 Y66.577 E.09129
G1 X191.839 Y68.339 E.09129
G1 X193.995 Y70.297 E.09129
G1 X195.971 Y72.435 E.09129
G1 X197.923 Y74.978 E.10052
G1 X199.476 Y77.441 E.09129
G1 X200.685 Y79.762 E.08206
G1 X201.811 Y82.447 E.09129
G1 X202.699 Y85.22 E.09129
G1 X203.392 Y88.35 E.10052
G1 X203.76 Y91.238 E.09129
G1 X203.877 Y94 E.08668
G1 X203.877 Y167 E2.28886
G1 X203.483 Y168.583 E.05115
G1 X202.393 Y169.797 E.05115
G1 X200.5 Y170.377 E.06207
G1 X30.5 Y170.377 E5.33023
G1 X28.917 Y169.983 E.05115
G1 X27.703 Y168.893 E.05115
G1 X27.123 Y167 E.06207
G1 X27.123 Y94 E2.28886
G1 X27.24 Y91.238 E.08668
G1 X27.608 Y88.35 E.09129
G1 X28.225 Y85.504 E.09129
G1 X29.088 Y82.724 E.09129
G1 X30.315 Y79.762 E.10052
G1 X31.671 Y77.185 E.09129
G1 X33.246 Y74.737 E.09129
G1 X35.029 Y72.435 E.09129
G1 X36.797 Y70.505 E.08206
G1 X38.935 Y68.529 E.09129
G1 X41.237 Y66.746 E.09129
G1 X42.389 Y66.005 E.04296
G1 E-3.5 F3600
;WIPE_START
G1 F7200
G1 X43.685 Y65.171 E-.73218
G1 X44.976 Y64.492 E-.69282
;WIPE_END
G1 E-.075 F3600
G1 X83.733 Y76.66 F9000
G1 E5 F2400
;TYPE:Perimeter
G1 F1200
G1 X83.96 Y76.112 E.01862
G1 X84.322 Y75.64 E.01862
G1 X84.793 Y75.279 E.01862
G1 X85.341 Y75.052 E.01862
G1 X85.885 Y74.98 E.0172
G1 X143.665 Y74.98 E1.81165
G1 X144.209 Y75.052 E.0172
G1 X144.758 Y75.279 E.01862
G1 X145.229 Y75.64 E.01862
G1 X145.59 Y76.112 E.01862
G1 X145.818 Y76.66 E.01862
G1 X145.889 Y77.204 E.0172
G1 X145.889 Y153.018 E2.3771
G1 X145.818 Y153.562 E.0172
G1 X145.59 Y154.111 E.01862
G1 X145.229 Y154.582 E.01862
G1 X144.758 Y154.943 E.01862
G1 X144.209 Y155.171 E.01862
G1 X143.665 Y155.242 E.0172
G1 X85.885 Y155.242 E1.81165
G1 X85.341 Y155.171 E.0172
G1 X84.793 Y154.943 E.01862
G1 X84.322 Y154.582 E.01862
G1 X83.96 Y154.111 E.01862
G1 X83.733 Y153.562 E.01862
G1 X83.661 Y153.018 E.0172
G1 X83.661 Y77.204 E2.3771
G1 X83.725 Y76.72 E.01532
G1 X84.1 Y76.759 F9000
;TYPE:External perimeter
G1 F1200
G1 X84.289 Y76.302 E.01551
G1 X84.59 Y75.909 E.01551
G1 X84.983 Y75.608 E.01551
G1 X85.44 Y75.419 E.01551
G1 X85.91 Y75.357 E.01487
G1 X143.641 Y75.357 E1.8101
G1 X144.111 Y75.419 E.01487
G1 X144.568 Y75.608 E.01551
G1 X144.96 Y75.909 E.01551
G1 X145.261 Y76.302 E.01551
G1 X145.45 Y76.759 E.01551
G1 X145.512 Y77.229 E.01487
G1 X145.512 Y152.993 E2.37555
G1 X145.45 Y153.463 E.01487
G1 X145.261 Y153.92 E.01551
G1 X144.96 Y154.313 E.01551
G1 X144.568 Y154.614 E.01551
G1 X144.111 Y154.803 E.01551
G1 X143.641 Y154.865 E.01487
G1 X85.91 Y154.865 E1.8101
G1 X85.44 Y154.803 E.01487
G1 X84.983 Y154.614 E.01551
G1 X84.59 Y154.313 E.01551
G1 X84.289 Y153.92 E.01551
G1 X84.1 Y153.463 E.01551
G1 X84.038 Y152.993 E.01487
G1 X84.038 Y77.229 E2.37555
G1 X84.092 Y76.818 E.01298
G1 X83.817 Y76.476 F9000
G1 E-3.5 F3600
;WIPE_START
G1 F7200
G1 X84.289 Y76.302 E-.26257
G1 X84.59 Y75.909 E-.23494
G1 X84.983 Y75.608 E-.23494
G1 X85.44 Y75.419 E-.23494
G1 X85.91 Y75.357 E-.22521
G1 X86.399 Y75.357 E-.23239
;WIPE_END
G1 E-.075 F3600
G1 X62.093 Y76.356 F9000
G1 E5 F2400
;TYPE:Perimeter
G1 F1200
G1 X62.018 Y76.924 E.01795
G1 X61.799 Y77.453 E.01795
G1 X61.451 Y77.907 E.01795
G1 X60.996 Y78.255 E.01795
G1 X60.468 Y78.474 E.01795
G1 X59.9 Y78.549 E.01795
G1 X59.332 Y78.474 E.01795
G1 X58.803 Y78.255 E.01795
G1 X58.349 Y77.907 E.01795
G1 X58.001 Y77.453 E.01795
G1 X57.782 Y76.924 E.01795
G1 X57.707 Y76.356 E.01795
G1 X57.782 Y75.789 E.01795
G1 X58.001 Y75.26 E.01795
G1 X58.349 Y74.805 E.01795
G1 X58.806 Y74.455 E.01806
G1 X59.356 Y74.235 E.01856
G1 X59.9 Y74.163 E.01721
G1 X60.468 Y74.238 E.01795
G1 X60.997 Y74.457 E.01795
G1 X61.451 Y74.805 E.01795
G1 X61.799 Y75.26 E.01795
G1 X62.018 Y75.789 E.01795
G1 X62.085 Y76.297 E.01607
G1 X61.713 Y76.356 F9000
;TYPE:External perimeter
G1 F1200
G1 X61.651 Y76.825 E.01484
G1 X61.47 Y77.263 E.01484
G1 X61.182 Y77.638 E.01484
G1 X60.806 Y77.926 E.01484
G1 X60.369 Y78.107 E.01484
G1 X59.9 Y78.169 E.01484
G1 X59.431 Y78.107 E.01484
G1 X58.994 Y77.926 E.01484
G1 X58.618 Y77.638 E.01484
G1 X58.33 Y77.262 E.01484
G1 X58.149 Y76.825 E.01484
G1 X58.087 Y76.356 E.01484
G1 X58.149 Y75.887 E.01484
G1 X58.33 Y75.45 E.01484
G1 X58.618 Y75.074 E.01484
G1 X58.995 Y74.786 E.01488
G1 X59.452 Y74.602 E.01544
G1 X59.9 Y74.544 E.01417
G1 X60.369 Y74.605 E.01484
G1 X60.806 Y74.786 E.01484
G1 X61.182 Y75.074 E.01484
G1 X61.47 Y75.45 E.01484
G1 X61.651 Y75.887 E.01484
G1 X61.705 Y76.297 E.01296
G1 X62.059 Y76.556 F9000
G1 E-3.5 F3600
;WIPE_START
G1 F7200
G1 X61.651 Y76.825 E-.25241
G1 X61.47 Y77.263 E-.22477
G1 X61.182 Y77.638 E-.22479
G1 X60.806 Y77.926 E-.22477
G1 X60.369 Y78.107 E-.22476
G1 X59.9 Y78.169 E-.22477
G1 X59.798 Y78.155 E-.04873
;WIPE_END
G1 E-.075 F3600
G1 X50.494 Y86.162 F9000
G1 E5 F2400
;TYPE:Perimeter
G1 F1200
G1 X50.799 Y86.56 E.01573
G1 X51.018 Y87.089 E.01795
G1 X51.093 Y87.656 E.01795
G1 X51.018 Y88.224 E.01795
G1 X50.799 Y88.753 E.01795
G1 X50.451 Y89.207 E.01795
G1 X49.996 Y89.555 E.01795
G1 X49.468 Y89.774 E.01795
G1 X48.9 Y89.849 E.01795
G1 X48.332 Y89.774 E.01795
G1 X47.803 Y89.555 E.01795
G1 X47.349 Y89.207 E.01795
G1 X47.001 Y88.753 E.01795
G1 X46.782 Y88.224 E.01795
G1 X46.707 Y87.656 E.01795
G1 X46.782 Y87.089 E.01795
G1 X47.001 Y86.56 E.01795
G1 X47.349 Y86.106 E.01795
G1 X47.806 Y85.755 E.01806
G1 X48.356 Y85.535 E.01856
G1 X48.9 Y85.463 E.01721
G1 X49.468 Y85.538 E.01795
G1 X50 Y85.758 E.01806
G1 X50.455 Y86.116 E.01816
G1 X50.195 Y86.391 F9000
;TYPE:External perimeter
G1 F1200
G1 X50.47 Y86.75 E.01417
G1 X50.651 Y87.187 E.01484
G1 X50.713 Y87.656 E.01484
G1 X50.651 Y88.125 E.01484
G1 X50.47 Y88.563 E.01484
G1 X50.182 Y88.938 E.01484
G1 X49.806 Y89.226 E.01484
G1 X49.369 Y89.407 E.01484
G1 X48.9 Y89.469 E.01484
G1 X48.431 Y89.407 E.01484
G1 X47.994 Y89.226 E.01484
G1 X47.618 Y88.938 E.01484
G1 X47.33 Y88.562 E.01484
G1 X47.149 Y88.125 E.01484
G1 X47.087 Y87.656 E.01484
G1 X47.149 Y87.187 E.01484
G1 X47.33 Y86.75 E.01484
G1 X47.618 Y86.374 E.01484
G1 X47.995 Y86.086 E.01488
G1 X48.452 Y85.902 E.01544
G1 X48.9 Y85.844 E.01417
G1 X49.369 Y85.905 E.01484
G1 X49.808 Y86.087 E.01488
G1 X50.148 Y86.354 E.01356
G1 X50.581 Y86.289 F9000
G1 E-3.5 F3600
;WIPE_START
G1 F7200
G1 X50.47 Y86.75 E-.2424
G1 X50.651 Y87.187 E-.22478
G1 X50.713 Y87.656 E-.22478
G1 X50.651 Y88.125 E-.22477
G1 X50.47 Y88.563 E-.22478
G1 X50.182 Y88.938 E-.22476
G1 X50.084 Y89.013 E-.05873
;WIPE_END
G1 E-.075 F3600
G1 X51.404 Y160.102 F9000
G1 E5 F2400
;TYPE:Perimeter
G1 F1200
G1 X51.972 Y160.176 E.01795
G1 X52.5 Y160.395 E.01795
G1 X52.955 Y160.744 E.01795
G1 X53.303 Y161.198 E.01795
G1 X53.522 Y161.727 E.01795
G1 X53.597 Y162.295 E.01795
G1 X53.522 Y162.862 E.01795
G1 X53.303 Y163.391 E.01795
G1 X52.955 Y163.845 E.01795
G1 X52.5 Y164.194 E.01795
G1 X51.971 Y164.413 E.01795
G1 X51.404 Y164.488 E.01795
G1 X50.836 Y164.413 E.01795
G1 X50.307 Y164.194 E.01795
G1 X49.853 Y163.845 E.01795
G1 X49.505 Y163.391 E.01795
G1 X49.286 Y162.862 E.01795
G1 X49.211 Y162.295 E.01795
G1 X49.286 Y161.727 E.01795
G1 X49.505 Y161.198 E.01795
G1 X49.853 Y160.744 E.01795
G1 X50.31 Y160.393 E.01806
G1 X50.86 Y160.173 E.01856
G1 X51.344 Y160.109 E.01533
G1 X51.404 Y160.482 F9000
;TYPE:External perimeter
G1 F1200
G1 X51.873 Y160.544 E.01484
G1 X52.31 Y160.725 E.01484
G1 X52.686 Y161.013 E.01484
G1 X52.974 Y161.388 E.01484
G1 X53.155 Y161.825 E.01484
G1 X53.217 Y162.295 E.01484
G1 X53.155 Y162.764 E.01484
G1 X52.974 Y163.201 E.01484
G1 X52.686 Y163.576 E.01484
G1 X52.31 Y163.864 E.01484
G1 X51.873 Y164.046 E.01484
G1 X51.404 Y164.107 E.01484
G1 X50.935 Y164.046 E.01484
G1 X50.498 Y163.864 E.01484
G1 X50.122 Y163.576 E.01484
G1 X49.834 Y163.201 E.01484
G1 X49.653 Y162.764 E.01484
G1 X49.591 Y162.295 E.01484
G1 X49.653 Y161.825 E.01484
G1 X49.834 Y161.388 E.01484
G1 X50.122 Y161.013 E.01484
G1 X50.499 Y160.724 E.01488
G1 X50.956 Y160.541 E.01545
G1 X51.344 Y160.49 E.01229
G1 X51.604 Y160.136 F9000
G1 E-3.5 F3600
;WIPE_START
G1 F7200
G1 X51.873 Y160.544 E-.2524
G1 X52.31 Y160.725 E-.22477
G1 X52.686 Y161.013 E-.22476
G1 X52.974 Y161.388 E-.22479
G1 X53.155 Y161.825 E-.22476
G1 X53.217 Y162.295 E-.22478
G1 X53.203 Y162.396 E-.04874
;WIPE_END
G1 E-.075 F3600
G1 X62.225 Y161.727 F9000
G1 E5 F2400
;TYPE:Perimeter
G1 F1200
G1 X62.444 Y161.198 E.01795
G1 X62.793 Y160.744 E.01795
G1 X63.25 Y160.393 E.01806
G1 X63.8 Y160.173 E.01856
G1 X64.344 Y160.102 E.01721
G1 X64.911 Y160.176 E.01795
G1 X65.44 Y160.395 E.01795
G1 X65.894 Y160.744 E.01795
G1 X66.243 Y161.198 E.01795
G1 X66.462 Y161.727 E.01795
G1 X66.537 Y162.295 E.01795
G1 X66.462 Y162.862 E.01795
G1 X66.243 Y163.391 E.01795
G1 X65.894 Y163.845 E.01795
G1 X65.44 Y164.194 E.01795
G1 X64.911 Y164.413 E.01795
G1 X64.344 Y164.488 E.01795
G1 X63.776 Y164.413 E.01795
G1 X63.244 Y164.192 E.01806
G1 X62.779 Y163.827 E.01856
G1 X62.444 Y163.391 E.01721
G1 X62.225 Y162.862 E.01795
G1 X62.151 Y162.295 E.01795
G1 X62.218 Y161.787 E.01607
G1 X62.593 Y161.825 F9000
;TYPE:External perimeter
G1 F1200
G1 X62.774 Y161.388 E.01484
G1 X63.062 Y161.013 E.01484
G1 X63.438 Y160.724 E.01488
G1 X63.896 Y160.541 E.01545
G1 X64.344 Y160.482 E.01417
G1 X64.813 Y160.544 E.01484
G1 X65.25 Y160.725 E.01484
G1 X65.625 Y161.013 E.01484
G1 X65.914 Y161.388 E.01484
G1 X66.095 Y161.825 E.01484
G1 X66.156 Y162.295 E.01484
G1 X66.095 Y162.764 E.01484
G1 X65.914 Y163.201 E.01484
G1 X65.625 Y163.576 E.01484
G1 X65.25 Y163.864 E.01484
G1 X64.813 Y164.046 E.01484
G1 X64.344 Y164.107 E.01484
G1 X63.875 Y164.046 E.01484
G1 X63.436 Y163.864 E.01488
G1 X63.049 Y163.56 E.01544
G1 X62.774 Y163.201 E.01417
G1 X62.593 Y162.764 E.01484
G1 X62.531 Y162.295 E.01484
G1 X62.585 Y161.885 E.01295
G1 X62.31 Y161.543 F9000
G1 E-3.5 F3600
;WIPE_START
G1 F7200
G1 X62.774 Y161.388 E-.25239
G1 X63.062 Y161.013 E-.22478
G1 X63.438 Y160.724 E-.22539
G1 X63.896 Y160.541 E-.23399
G1 X64.344 Y160.482 E-.21464
G1 X64.813 Y160.544 E-.22478
G1 X64.908 Y160.583 E-.04904
;WIPE_END
G1 E-.075 F3600
G1 X164.463 Y162.295 F9000
G1 E5 F2400
;TYPE:Perimeter
G1 F1200
G1 X164.538 Y161.727 E.01795
G1 X164.757 Y161.198 E.01795
G1 X165.106 Y160.744 E.01795
G1 X165.563 Y160.393 E.01806
G1 X166.112 Y160.173 E.01856
G1 X166.656 Y160.102 E.01721
G1 X167.224 Y160.176 E.01795
G1 X167.753 Y160.395 E.01795
G1 X168.207 Y160.744 E.01795
G1 X168.556 Y161.198 E.01795
G1 X168.775 Y161.727 E.01795
G1 X168.849 Y162.295 E.01795
G1 X168.775 Y162.862 E.01795
G1 X168.556 Y163.391 E.01795
G1 X168.207 Y163.845 E.01795
G1 X167.753 Y164.194 E.01795
G1 X167.224 Y164.413 E.01795
G1 X166.656 Y164.488 E.01795
G1 X166.089 Y164.413 E.01795
G1 X165.56 Y164.194 E.01795
G1 X165.106 Y163.845 E.01795
G1 X164.757 Y163.391 E.01795
G1 X164.538 Y162.862 E.01795
G1 X164.471 Y162.354 E.01607
G1 X164.844 Y162.295 F9000
;TYPE:External perimeter
G1 F1200
G1 X164.905 Y161.825 E.01484
G1 X165.086 Y161.388 E.01484
G1 X165.375 Y161.013 E.01484
G1 X165.751 Y160.724 E.01488
G1 X166.208 Y160.541 E.01545
G1 X166.656 Y160.482 E.01417
G1 X167.125 Y160.544 E.01484
G1 X167.563 Y160.725 E.01484
G1 X167.938 Y161.013 E.01484
G1 X168.226 Y161.388 E.01484
G1 X168.407 Y161.825 E.01484
G1 X168.469 Y162.295 E.01484
G1 X168.407 Y162.764 E.01484
G1 X168.226 Y163.201 E.01484
G1 X167.938 Y163.576 E.01484
G1 X167.563 Y163.864 E.01484
G1 X167.125 Y164.046 E.01484
G1 X166.656 Y164.107 E.01484
G1 X166.187 Y164.046 E.01484
G1 X165.75 Y163.864 E.01484
G1 X165.375 Y163.576 E.01484
G1 X165.086 Y163.201 E.01484
G1 X164.905 Y162.764 E.01484
G1 X164.851 Y162.354 E.01296
G1 X164.497 Y162.095 F9000
G1 E-3.5 F3600
;WIPE_START
G1 F7200
G1 X164.905 Y161.825 E-.25239
G1 X165.086 Y161.388 E-.22477
G1 X165.375 Y161.013 E-.22478
G1 X165.751 Y160.724 E-.22537
G1 X166.208 Y160.541 E-.23398
G1 X166.656 Y160.482 E-.21464
G1 X166.759 Y160.495 E-.04905
;WIPE_END
G1 E-.075 F3600
G1 X177.453 Y162.294 F9000
G1 E5 F2400
;TYPE:Perimeter
G1 F1200
G1 X177.526 Y161.74 E.01754
G1 X177.74 Y161.223 E.01754
G1 X178.081 Y160.779 E.01754
G1 X178.525 Y160.439 E.01754
G1 X179.042 Y160.225 E.01754
G1 X179.596 Y160.152 E.01753
G1 X180.151 Y160.225 E.01755
G1 X180.668 Y160.439 E.01754
G1 X181.112 Y160.78 E.01754
G1 X181.452 Y161.223 E.01754
G1 X181.666 Y161.74 E.01754
G1 X181.739 Y162.295 E.01754
G1 X181.666 Y162.85 E.01754
G1 X181.452 Y163.366 E.01754
G1 X181.111 Y163.81 E.01754
G1 X180.667 Y164.151 E.01754
G1 X180.15 Y164.365 E.01754
G1 X179.596 Y164.438 E.01754
G1 X179.041 Y164.364 E.01754
G1 X178.524 Y164.15 E.01754
G1 X178.081 Y163.81 E.01754
G1 X177.74 Y163.366 E.01754
G1 X177.526 Y162.849 E.01754
G1 X177.461 Y162.354 E.01566
G1 X177.833 Y162.294 F9000
;TYPE:External perimeter
G1 F1200
G1 X177.894 Y161.838 E.01443
G1 X178.07 Y161.413 E.01443
G1 X178.35 Y161.048 E.01443
G1 X178.715 Y160.768 E.01443
G1 X179.14 Y160.592 E.01443
G1 X179.596 Y160.532 E.01442
G1 X180.053 Y160.592 E.01444
G1 X180.478 Y160.768 E.01443
G1 X180.843 Y161.048 E.01443
G1 X181.123 Y161.414 E.01443
G1 X181.299 Y161.839 E.01443
G1 X181.359 Y162.295 E.01443
G1 X181.299 Y162.751 E.01443
G1 X181.122 Y163.176 E.01443
G1 X180.842 Y163.541 E.01443
G1 X180.477 Y163.821 E.01443
G1 X180.052 Y163.997 E.01443
G1 X179.596 Y164.057 E.01443
G1 X179.14 Y163.997 E.01443
G1 X178.715 Y163.821 E.01443
G1 X178.35 Y163.541 E.01443
G1 X178.069 Y163.176 E.01443
G1 X177.893 Y162.751 E.01443
G1 X177.841 Y162.354 E.01255
G1 X177.487 Y162.094 F9000
G1 E-3.5 F3600
;WIPE_START
G1 F7200
G1 X177.894 Y161.838 E-.2462
G1 X178.07 Y161.413 E-.21857
G1 X178.35 Y161.048 E-.21857
G1 X178.715 Y160.768 E-.21857
G1 X179.14 Y160.592 E-.21855
G1 X179.596 Y160.532 E-.21847
G1 X179.776 Y160.556 E-.08607
;WIPE_END
G1 E-.075 F3600
G1 X182.1 Y89.849 F9000
G1 E5 F2400
;TYPE:Perimeter
G1 F1200
G1 X181.532 Y89.774 E.01795
G1 X181.003 Y89.555 E.01795
G1 X180.549 Y89.207 E.01795
G1 X180.201 Y88.753 E.01795
G1 X179.982 Y88.224 E.01795
G1 X179.907 Y87.656 E.01795
G1 X179.982 Y87.089 E.01795
G1 X180.201 Y86.56 E.01795
G1 X180.549 Y86.105 E.01795
G1 X181.006 Y85.755 E.01806
G1 X181.556 Y85.535 E.01856
G1 X182.1 Y85.463 E.01721
G1 X182.668 Y85.538 E.01795
G1 X183.197 Y85.757 E.01795
G1 X183.651 Y86.106 E.01795
G1 X183.999 Y86.56 E.01795
G1 X184.218 Y87.089 E.01795
G1 X184.293 Y87.656 E.01795
G1 X184.218 Y88.224 E.01795
G1 X183.999 Y88.753 E.01795
G1 X183.651 Y89.207 E.01795
G1 X183.196 Y89.555 E.01795
G1 X182.668 Y89.774 E.01795
G1 X182.159 Y89.841 E.01607
G1 X182.1 Y89.469 F9000
;TYPE:External perimeter
G1 F1200
G1 X181.631 Y89.407 E.01484
G1 X181.194 Y89.226 E.01484
G1 X180.818 Y88.938 E.01484
G1 X180.53 Y88.562 E.01484
G1 X180.349 Y88.125 E.01484
G1 X180.287 Y87.656 E.01484
G1 X180.349 Y87.187 E.01484
G1 X180.53 Y86.75 E.01484
G1 X180.818 Y86.374 E.01484
