; generated by PrusaSlicer 2.4.2+x64 on 2022-06-25 at 10:22:07 UTC

; 

; external perimeters extrusion width = 0.45mm
; perimeters extrusion width = 0.45mm
; infill extrusion width = 0.45mm
; solid infill extrusion width = 0.45mm
; top infill extrusion width = 0.40mm
; first layer extrusion width = 0.42mm

M107
;TYPE:Custom
G90 ; use absolute coordinates
M83 ; extruder relative mode
M140 S60 ; set final bed temp
M104 S150 ; set temporary nozzle temp to prevent oozing during homing and auto bed leveling
G4 S10 ; allow partial nozzle warmup
G28 ; home all axis
G29 ; auto bed levelling
G1 Z50 F240
G1 X2 Y10 F3000
M104 S210 ; set final nozzle temp
M190 S60 ; wait for bed temp to stabilize
M109 S210 ; wait for nozzle temp to stabilize
G1 Z0.28 F240
G92 E0
G1 Y140 E10 F1500 ; prime the nozzle
G1 X2.3 F5000
G92 E0
G1 Y10 E10 F1200 ; prime the nozzle
G92 E0
G21 ; set units to millimeters
G90 ; use absolute coordinates
M83 ; use relative distances for extrusion
; Filament gcode
M107
;LAYER_CHANGE
;Z:0.2
;HEIGHT:0.2
;BEFORE_LAYER_CHANGE
G92 E0
;0.2


G1 E-5 F3600
G1 Z.2 F9000
;AFTER_LAYER_CHANGE
;0.2
G1 X28.607 Y47.361
G1 E5 F2400
M204 S500
;TYPE:Skirt/Brim
;WIDTH:0.42
G1 F1200
G1 X30.5 Y46.78 E.06207
G1 X200.5 Y46.78 E5.33023
G1 X202.083 Y47.174 E.05115
G1 X203.297 Y48.265 E.05115
G1 X203.877 Y50.157 E.06207
G1 X203.877 Y123.611 E2.30307
G1 X203.701 Y126.591 E.09362
G1 X203.227 Y129.354 E.08789
G1 X202.575 Y131.703 E.07643
G1 X201.555 Y134.314 E.08788
G1 X200.259 Y136.799 E.08789
G1 X198.702 Y139.129 E.08788
G1 X196.65 Y141.543 E.09934
G1 X194.6 Y143.456 E.08789
G1 X192.356 Y145.135 E.08788
G1 X190.267 Y146.391 E.07643
G1 X121.759 Y182.665 E2.43055
G1 X119.503 Y183.598 E.07653
G1 X117.39 Y184.077 E.06796
G1 X115.774 Y184.209 E.05083
G1 X113.07 Y183.989 E.08505
G1 X110.978 Y183.423 E.06796
G1 X109.241 Y182.665 E.05942
G1 X40.892 Y146.48 E2.42482
G1 X38.644 Y145.135 E.08217
G1 X36.4 Y143.456 E.08788
G1 X34.098 Y141.278 E.09934
G1 X32.298 Y139.129 E.08789
G1 X30.741 Y136.799 E.08789
G1 X29.599 Y134.646 E.07643
G1 X28.542 Y132.049 E.08789
G1 X27.773 Y129.354 E.08788
G1 X27.299 Y126.591 E.08789
G1 X27.123 Y123.611 E.09362
G1 X27.123 Y50.157 E2.30307
G1 X27.517 Y48.574 E.05115
G1 X28.567 Y47.405 E.04927
G1 E-3.5 F3600
;WIPE_START
G1 F7200
G1 X30.5 Y46.78 E-.96489
G1 X31.469 Y46.78 E-.46011
;WIPE_END
G1 E-.075 F3600
G1 X90.566 Y114.293 F9000
G1 E5 F2400
;TYPE:Perimeter
G1 F1200
G1 X91.153 Y113.825 E.02355
G1 X91.803 Y113.556 E.02204
G1 X92.455 Y113.47 E.02062
G1 X138.545 Y113.47 E1.44512
G1 X139.197 Y113.556 E.02062
G1 X139.847 Y113.825 E.02204
G1 X140.404 Y114.253 E.02204
G1 X140.832 Y114.811 E.02204
G1 X141.101 Y115.46 E.02204
G1 X141.187 Y116.112 E.02062
G1 X141.187 Y162.202 E1.44512
G1 X141.101 Y162.854 E.02062
G1 X140.832 Y163.504 E.02204
G1 X140.404 Y164.062 E.02204
G1 X139.847 Y164.49 E.02204
G1 X139.197 Y164.759 E.02204
G1 X138.545 Y164.845 E.02062
G1 X92.455 Y164.845 E1.44512
G1 X91.803 Y164.759 E.02062
G1 X91.154 Y164.49 E.02204
G1 X90.596 Y164.062 E.02204
G1 X90.168 Y163.504 E.02204
G1 X89.899 Y162.854 E.02204
G1 X89.813 Y162.202 E.02062
G1 X89.813 Y116.112 E1.44512
G1 X89.899 Y115.46 E.02062
G1 X90.168 Y114.811 E.02204
G1 X90.529 Y114.34 E.0186
G1 X90.865 Y114.522 F9000
;TYPE:External perimeter
G1 F1200
G1 X91.344 Y114.155 E.01893
G1 X91.901 Y113.924 E.01893
G1 X92.48 Y113.847 E.01829
G1 X138.52 Y113.847 E1.44357
G1 X139.099 Y113.924 E.01829
G1 X139.656 Y114.155 E.01893
G1 X140.135 Y114.522 E.01893
G1 X140.503 Y115.001 E.01893
G1 X140.734 Y115.559 E.01893
G1 X140.81 Y116.137 E.01829
G1 X140.81 Y162.178 E1.44357
G1 X140.734 Y162.756 E.01829
G1 X140.503 Y163.314 E.01893
G1 X140.135 Y163.793 E.01893
G1 X139.656 Y164.16 E.01893
G1 X139.099 Y164.391 E.01893
G1 X138.52 Y164.467 E.01829
G1 X92.48 Y164.467 E1.44357
G1 X91.901 Y164.391 E.01829
G1 X91.344 Y164.16 E.01893
G1 X90.865 Y163.793 E.01893
G1 X90.497 Y163.314 E.01893
G1 X90.266 Y162.756 E.01893
G1 X90.19 Y162.178 E.01829
G1 X90.19 Y116.137 E1.44357
G1 X90.266 Y115.559 E.01829
G1 X90.497 Y115.001 E.01893
G1 X90.828 Y114.57 E.01705
G1 X90.761 Y114.136 F9000
G1 E-3.5 F3600
;WIPE_START
G1 F7200
G1 X91.344 Y114.155 E-.31439
G1 X91.901 Y113.924 E-.28677
G1 X92.48 Y113.847 E-.27704
G1 X93.631 Y113.847 E-.5468
;WIPE_END
G1 E-.075 F3600
G1 X79.846 Y95.303 F9000
G1 E5 F2400
;TYPE:Perimeter
G1 F1200
G1 X79.366 Y95.503 E.01631
G1 X78.85 Y95.57 E.01631
G1 X78.334 Y95.503 E.01631
G1 X77.853 Y95.303 E.01631
G1 X77.441 Y94.987 E.01631
G1 X77.124 Y94.574 E.01631
G1 X76.925 Y94.093 E.01631
G1 X76.857 Y93.577 E.01631
G1 X76.925 Y93.062 E.01631
G1 X77.124 Y92.581 E.01631
G1 X77.441 Y92.168 E.01631
G1 X77.857 Y91.849 E.01645
G1 X78.36 Y91.649 E.01697
G1 X78.85 Y91.584 E.0155
G1 X79.366 Y91.652 E.01631
G1 X79.847 Y91.851 E.01631
G1 X80.259 Y92.168 E.01631
G1 X80.576 Y92.581 E.01631
G1 X80.775 Y93.062 E.01631
G1 X80.843 Y93.577 E.01631
G1 X80.775 Y94.093 E.01631
G1 X80.576 Y94.574 E.01631
G1 X80.259 Y94.987 E.01631
G1 X79.894 Y95.267 E.01443
G1 X79.656 Y94.974 F9000
;TYPE:External perimeter
G1 F1200
G1 X79.267 Y95.135 E.0132
G1 X78.85 Y95.19 E.0132
G1 X78.433 Y95.135 E.0132
G1 X78.044 Y94.974 E.0132
G1 X77.71 Y94.718 E.0132
G1 X77.453 Y94.384 E.0132
G1 X77.292 Y93.995 E.0132
G1 X77.237 Y93.577 E.0132
G1 X77.292 Y93.16 E.0132
G1 X77.453 Y92.771 E.0132
G1 X77.71 Y92.437 E.0132
G1 X78.045 Y92.18 E.01325
G1 X78.456 Y92.017 E.01386
G1 X78.85 Y91.965 E.01247
G1 X79.267 Y92.02 E.0132
G1 X79.656 Y92.181 E.0132
G1 X79.99 Y92.437 E.0132
G1 X80.247 Y92.771 E.0132
G1 X80.408 Y93.16 E.0132
G1 X80.463 Y93.577 E.0132
G1 X80.408 Y93.995 E.0132
G1 X80.247 Y94.384 E.0132
G1 X79.99 Y94.718 E.0132
G1 X79.704 Y94.938 E.01132
G1 X79.656 Y95.374 F9000
G1 E-3.5 F3600
;WIPE_START
G1 F7200
G1 X79.267 Y95.135 E-.22761
G1 X78.85 Y95.19 E-.19997
G1 X78.433 Y95.135 E-.19997
G1 X78.044 Y94.974 E-.19997
G1 X77.71 Y94.718 E-.19997
G1 X77.453 Y94.384 E-.19997
G1 X77.294 Y94 E-.19753
;WIPE_END
G1 E-.075 F3600
G1 X73.994 Y58.583 F9000
G1 E5 F2400
;TYPE:Perimeter
G1 F1200
G1 X73.478 Y58.651 E.01631
G1 X72.962 Y58.583 E.01631
G1 X72.477 Y58.382 E.01645
G1 X72.053 Y58.047 E.01697
G1 X71.752 Y57.654 E.0155
G1 X71.553 Y57.174 E.01631
G1 X71.485 Y56.658 E.01631
G1 X71.553 Y56.142 E.01631
G1 X71.752 Y55.661 E.01631
G1 X72.069 Y55.249 E.01631
G1 X72.485 Y54.929 E.01645
G1 X72.988 Y54.729 E.01697
G1 X73.478 Y54.665 E.0155
G1 X73.994 Y54.733 E.01631
G1 X74.474 Y54.932 E.01631
G1 X74.887 Y55.249 E.01631
G1 X75.204 Y55.661 E.01631
G1 X75.403 Y56.142 E.01631
G1 X75.471 Y56.658 E.01631
G1 X75.403 Y57.174 E.01631
G1 X75.202 Y57.658 E.01645
G1 X74.867 Y58.083 E.01697
G1 X74.474 Y58.384 E.0155
G1 X74.049 Y58.56 E.01443
G1 X73.895 Y58.216 F9000
;TYPE:External perimeter
G1 F1200
G1 X73.478 Y58.271 E.0132
G1 X73.06 Y58.216 E.0132
G1 X72.67 Y58.054 E.01325
G1 X72.323 Y57.78 E.01386
G1 X72.081 Y57.464 E.01247
G1 X71.92 Y57.075 E.0132
G1 X71.865 Y56.658 E.0132
G1 X71.92 Y56.241 E.0132
G1 X72.081 Y55.852 E.0132
G1 X72.338 Y55.518 E.0132
G1 X72.673 Y55.26 E.01325
G1 X73.083 Y55.097 E.01386
G1 X73.478 Y55.045 E.01247
G1 X73.895 Y55.1 E.0132
G1 X74.284 Y55.261 E.0132
G1 X74.618 Y55.518 E.0132
G1 X74.874 Y55.852 E.0132
G1 X75.036 Y56.241 E.0132
G1 X75.091 Y56.658 E.0132
G1 X75.036 Y57.075 E.0132
G1 X74.874 Y57.466 E.01325
G1 X74.6 Y57.812 E.01386
G1 X74.284 Y58.055 E.01247
G1 X73.951 Y58.193 E.01132
G1 X73.791 Y58.602 F9000
G1 E-3.5 F3600
;WIPE_START
G1 F7200
G1 X73.478 Y58.271 E-.22762
G1 X73.06 Y58.216 E-.19997
G1 X72.67 Y58.054 E-.20071
G1 X72.323 Y57.78 E-.20992
G1 X72.081 Y57.464 E-.18896
G1 X71.92 Y57.075 E-.19997
G1 X71.866 Y56.662 E-.19785
;WIPE_END
G1 E-.075 F3600
G1 X66.462 Y55.43 F9000
G1 E5 F2400
;TYPE:Perimeter
G1 F1200
G1 X66.243 Y55.959 E.01795
G1 X65.894 Y56.414 E.01795
G1 X65.44 Y56.762 E.01795
G1 X64.911 Y56.981 E.01795
G1 X64.344 Y57.056 E.01795
G1 X63.776 Y56.981 E.01795
G1 X63.247 Y56.762 E.01795
G1 X62.793 Y56.414 E.01795
G1 X62.444 Y55.959 E.01795
G1 X62.225 Y55.43 E.01795
G1 X62.151 Y54.863 E.01795
G1 X62.225 Y54.295 E.01795
G1 X62.444 Y53.766 E.01795
G1 X62.793 Y53.312 E.01795
G1 X63.25 Y52.961 E.01806
G1 X63.8 Y52.741 E.01856
G1 X64.344 Y52.67 E.01721
G1 X64.911 Y52.745 E.01795
G1 X65.44 Y52.964 E.01795
G1 X65.894 Y53.312 E.01795
G1 X66.243 Y53.766 E.01795
G1 X66.462 Y54.295 E.01795
G1 X66.537 Y54.863 E.01795
G1 X66.47 Y55.371 E.01607
G1 X66.095 Y55.332 F9000
;TYPE:External perimeter
G1 F1200
G1 X65.914 Y55.769 E.01484
G1 X65.625 Y56.145 E.01484
G1 X65.25 Y56.433 E.01484
G1 X64.813 Y56.614 E.01484
G1 X64.344 Y56.676 E.01484
G1 X63.875 Y56.614 E.01484
G1 X63.437 Y56.433 E.01484
G1 X63.062 Y56.145 E.01484
G1 X62.774 Y55.769 E.01484
G1 X62.593 Y55.332 E.01484
G1 X62.531 Y54.863 E.01484
G1 X62.593 Y54.394 E.01484
G1 X62.774 Y53.956 E.01484
G1 X63.062 Y53.581 E.01484
G1 X63.438 Y53.292 E.01488
G1 X63.896 Y53.109 E.01545
G1 X64.344 Y53.05 E.01417
G1 X64.813 Y53.112 E.01484
G1 X65.25 Y53.293 E.01484
G1 X65.625 Y53.581 E.01484
G1 X65.914 Y53.957 E.01484
G1 X66.095 Y54.394 E.01484
G1 X66.156 Y54.863 E.01484
G1 X66.102 Y55.273 E.01296
G1 X66.377 Y55.615 F9000
G1 E-3.5 F3600
;WIPE_START
G1 F7200
G1 X65.914 Y55.769 E-.25241
G1 X65.625 Y56.145 E-.22478
G1 X65.25 Y56.433 E-.22477
G1 X64.813 Y56.614 E-.22476
G1 X64.344 Y56.676 E-.22478
G1 X63.875 Y56.614 E-.22477
G1 X63.78 Y56.574 E-.04873
;WIPE_END
G1 E-.075 F3600
G1 X53.597 Y54.863 F9000
G1 E5 F2400
;TYPE:Perimeter
G1 F1200
G1 X53.522 Y55.43 E.01795
G1 X53.303 Y55.959 E.01795
G1 X52.955 Y56.414 E.01795
G1 X52.5 Y56.762 E.01795
G1 X51.971 Y56.981 E.01795
G1 X51.404 Y57.056 E.01795
G1 X50.836 Y56.981 E.01795
G1 X50.307 Y56.762 E.01795
G1 X49.853 Y56.414 E.01795
G1 X49.505 Y55.959 E.01795
G1 X49.286 Y55.43 E.01795
G1 X49.211 Y54.863 E.01795
G1 X49.286 Y54.295 E.01795
G1 X49.505 Y53.766 E.01795
G1 X49.853 Y53.312 E.01795
G1 X50.31 Y52.961 E.01806
G1 X50.86 Y52.741 E.01856
G1 X51.404 Y52.67 E.01721
G1 X51.972 Y52.745 E.01795
G1 X52.5 Y52.964 E.01795
G1 X52.955 Y53.312 E.01795
G1 X53.303 Y53.766 E.01795
G1 X53.522 Y54.295 E.01795
G1 X53.589 Y54.803 E.01607
G1 X53.217 Y54.863 F9000
;TYPE:External perimeter
G1 F1200
G1 X53.155 Y55.332 E.01484
G1 X52.974 Y55.769 E.01484
G1 X52.686 Y56.145 E.01484
G1 X52.31 Y56.433 E.01484
G1 X51.873 Y56.614 E.01484
G1 X51.404 Y56.676 E.01484
G1 X50.935 Y56.614 E.01484
G1 X50.498 Y56.433 E.01484
G1 X50.122 Y56.145 E.01484
G1 X49.834 Y55.769 E.01484
G1 X49.653 Y55.332 E.01484
G1 X49.591 Y54.863 E.01484
G1 X49.653 Y54.394 E.01484
G1 X49.834 Y53.956 E.01484
G1 X50.122 Y53.581 E.01484
G1 X50.499 Y53.292 E.01488
G1 X50.956 Y53.109 E.01544
G1 X51.404 Y53.05 E.01417
G1 X51.873 Y53.112 E.01484
G1 X52.31 Y53.293 E.01484
G1 X52.686 Y53.581 E.01484
G1 X52.974 Y53.957 E.01484
G1 X53.155 Y54.394 E.01484
G1 X53.209 Y54.803 E.01296
G1 X53.563 Y55.063 F9000
G1 E-3.5 F3600
;WIPE_START
G1 F7200
G1 X53.155 Y55.332 E-.2524
G1 X52.974 Y55.769 E-.22478
G1 X52.686 Y56.145 E-.22477
G1 X52.31 Y56.433 E-.22477
G1 X51.873 Y56.614 E-.22477
G1 X51.404 Y56.676 E-.22477
G1 X51.302 Y56.662 E-.04874
;WIPE_END
G1 E-.075 F3600
G1 X42.886 Y118.438 F9000
G1 E5 F2400
;TYPE:Perimeter
G1 F1200
G1 X43.415 Y118.657 E.01795
G1 X43.869 Y119.006 E.01795
G1 X44.218 Y119.46 E.01795
G1 X44.437 Y119.989 E.01795
G1 X44.512 Y120.556 E.01795
G1 X44.437 Y121.124 E.01795
G1 X44.218 Y121.653 E.01795
G1 X43.869 Y122.107 E.01795
G1 X43.415 Y122.456 E.01795
G1 X42.886 Y122.675 E.01795
G1 X42.319 Y122.749 E.01795
G1 X41.751 Y122.675 E.01795
G1 X41.222 Y122.456 E.01795
G1 X40.768 Y122.107 E.01795
G1 X40.419 Y121.653 E.01795
G1 X40.2 Y121.124 E.01795
G1 X40.126 Y120.556 E.01795
G1 X40.2 Y119.989 E.01795
G1 X40.419 Y119.46 E.01795
G1 X40.768 Y119.006 E.01795
G1 X41.225 Y118.655 E.01806
G1 X41.774 Y118.435 E.01856
G1 X42.319 Y118.363 E.01721
G1 X42.827 Y118.43 E.01607
G1 X42.788 Y118.805 F9000
;TYPE:External perimeter
G1 F1200
G1 X43.225 Y118.986 E.01484
G1 X43.6 Y119.275 E.01484
G1 X43.888 Y119.65 E.01484
G1 X44.07 Y120.087 E.01484
G1 X44.131 Y120.556 E.01484
G1 X44.07 Y121.025 E.01484
G1 X43.888 Y121.463 E.01484
G1 X43.6 Y121.838 E.01484
G1 X43.225 Y122.126 E.01484
G1 X42.788 Y122.307 E.01484
G1 X42.319 Y122.369 E.01484
G1 X41.849 Y122.307 E.01484
G1 X41.412 Y122.126 E.01484
G1 X41.037 Y121.838 E.01484
G1 X40.749 Y121.463 E.01484
G1 X40.568 Y121.025 E.01484
G1 X40.506 Y120.556 E.01484
G1 X40.568 Y120.087 E.01484
G1 X40.749 Y119.65 E.01484
G1 X41.037 Y119.275 E.01484
G1 X41.413 Y118.986 E.01488
G1 X41.871 Y118.803 E.01544
G1 X42.319 Y118.744 E.01417
G1 X42.728 Y118.798 E.01296
G1 X43.071 Y118.523 F9000
G1 E-3.5 F3600
;WIPE_START
G1 F7200
G1 X43.225 Y118.986 E-.25241
G1 X43.6 Y119.275 E-.22479
G1 X43.888 Y119.65 E-.22476
G1 X44.07 Y120.087 E-.22476
G1 X44.131 Y120.556 E-.22478
G1 X44.07 Y121.025 E-.22477
G1 X44.03 Y121.12 E-.04873
;WIPE_END
G1 E-.075 F3600
G1 X49.233 Y131.762 F9000
G1 E5 F2400
;TYPE:Perimeter
G1 F1200
G1 X49.783 Y131.542 E.01856
G1 X50.327 Y131.47 E.01721
G1 X50.895 Y131.545 E.01795
G1 X51.424 Y131.764 E.01795
G1 X51.878 Y132.112 E.01795
G1 X52.226 Y132.567 E.01795
G1 X52.445 Y133.096 E.01795
G1 X52.52 Y133.663 E.01795
G1 X52.445 Y134.231 E.01795
G1 X52.226 Y134.76 E.01795
G1 X51.878 Y135.214 E.01795
G1 X51.423 Y135.562 E.01795
G1 X50.895 Y135.781 E.01795
G1 X50.327 Y135.856 E.01795
G1 X49.759 Y135.781 E.01795
G1 X49.23 Y135.562 E.01795
G1 X48.776 Y135.214 E.01795
G1 X48.428 Y134.76 E.01795
G1 X48.209 Y134.231 E.01795
G1 X48.134 Y133.663 E.01795
G1 X48.209 Y133.095 E.01795
G1 X48.428 Y132.567 E.01795
G1 X48.776 Y132.112 E.01795
G1 X49.186 Y131.798 E.01618
G1 X49.422 Y132.093 F9000
;TYPE:External perimeter
G1 F1200
G1 X49.879 Y131.909 E.01544
G1 X50.327 Y131.85 E.01417
G1 X50.796 Y131.912 E.01484
G1 X51.233 Y132.093 E.01484
G1 X51.609 Y132.381 E.01484
G1 X51.897 Y132.757 E.01484
G1 X52.078 Y133.194 E.01484
G1 X52.14 Y133.663 E.01484
G1 X52.078 Y134.132 E.01484
G1 X51.897 Y134.569 E.01484
G1 X51.609 Y134.945 E.01484
G1 X51.233 Y135.233 E.01484
G1 X50.796 Y135.414 E.01484
G1 X50.327 Y135.476 E.01484
G1 X49.858 Y135.414 E.01484
G1 X49.421 Y135.233 E.01484
G1 X49.045 Y134.945 E.01484
G1 X48.757 Y134.569 E.01484
G1 X48.576 Y134.132 E.01484
G1 X48.514 Y133.663 E.01484
G1 X48.576 Y133.194 E.01484
G1 X48.757 Y132.757 E.01484
G1 X49.045 Y132.381 E.01484
G1 X49.374 Y132.129 E.013
G1 X49.425 Y131.693 F9000
G1 E-3.5 F3600
;WIPE_START
G1 F7200
G1 X49.879 Y131.909 E-.26152
G1 X50.327 Y131.85 E-.21465
G1 X50.796 Y131.912 E-.22477
G1 X51.233 Y132.093 E-.22478
G1 X51.609 Y132.381 E-.22476
G1 X51.897 Y132.757 E-.22478
G1 X51.937 Y132.854 E-.04973
;WIPE_END
G1 E-.075 F3600
G1 X178.48 Y133.663 F9000
G1 E5 F2400
;TYPE:Perimeter
G1 F1200
G1 X178.555 Y133.096 E.01795
G1 X178.774 Y132.567 E.01795
G1 X179.122 Y132.112 E.01795
G1 X179.579 Y131.762 E.01806
G1 X180.129 Y131.542 E.01856
G1 X180.673 Y131.47 E.01721
G1 X181.241 Y131.545 E.01795
G1 X181.773 Y131.765 E.01806
G1 X182.238 Y132.131 E.01856
G1 X182.572 Y132.567 E.01721
G1 X182.791 Y133.096 E.01795
G1 X182.866 Y133.663 E.01795
G1 X182.791 Y134.231 E.01795
G1 X182.572 Y134.76 E.01795
G1 X182.224 Y135.214 E.01795
G1 X181.769 Y135.562 E.01795
G1 X181.241 Y135.781 E.01795
G1 X180.673 Y135.856 E.01795
G1 X180.105 Y135.781 E.01795
G1 X179.576 Y135.562 E.01795
G1 X179.122 Y135.214 E.01795
G1 X178.774 Y134.76 E.01795
G1 X178.555 Y134.231 E.01795
G1 X178.488 Y133.723 E.01607
G1 X178.86 Y133.663 F9000
;TYPE:External perimeter
G1 F1200
G1 X178.922 Y133.194 E.01484
G1 X179.103 Y132.757 E.01484
G1 X179.391 Y132.381 E.01484
G1 X179.768 Y132.093 E.01488
G1 X180.225 Y131.909 E.01544
G1 X180.673 Y131.85 E.01417
G1 X181.142 Y131.912 E.01484
G1 X181.581 Y132.094 E.01488
G1 X181.968 Y132.398 E.01544
G1 X182.243 Y132.757 E.01417
G1 X182.424 Y133.194 E.01484
G1 X182.486 Y133.663 E.01484
G1 X182.424 Y134.132 E.01484
G1 X182.243 Y134.569 E.01484
G1 X181.955 Y134.945 E.01484
G1 X181.579 Y135.233 E.01484
G1 X181.142 Y135.414 E.01484
G1 X180.673 Y135.476 E.01484
G1 X180.204 Y135.414 E.01484
G1 X179.767 Y135.233 E.01484
G1 X179.391 Y134.945 E.01484
G1 X179.103 Y134.569 E.01484
G1 X178.922 Y134.132 E.01484
G1 X178.868 Y133.723 E.01296
G1 X178.514 Y133.463 F9000
G1 E-3.5 F3600
;WIPE_START
